X: 25
T: Master Crowley's
Z: Andy Holbert
S: https://thesession.org/tunes/281#setting54036
R: reel
M: 4/4
L: 1/8
K: Bmin
B,EE2 B,EFE|EDB,2 A,DFD|B,EE2 CEGB|AFDE FEED|
B,EE2 B,EFE|EDB,2 A,DFD|B,EE2 CEGB|AFdF FEED|
Bee2 Befe|edAA Aded|Bee2 cegb|afde feed|
Bee2 Bege|edAA Aded|Bee2 cegb|afde feed|
|:EBAB GBFB|EDDD B,DFD|EBAB dBed|fege cAca|
Bbab fgeg|fdad bdad|EDEF GABd|BAdF FEED:|

%-------------------- TUNE SEPARATOR --------------------%

